X: 241
T: Ku laope
L: 1/16
M: 2/4
K: G
e d2 d B B2 d [I:setbarnb 1]| 
A2 E GA4 | 
e d2 d B B2 d | 
A2 E GA4 | 
e d2 d B B2 d | 
A2 A2 d3 F | 
A2 A A d2 F E | 
D2> E2 G3 A | 
d2 d B A B A B | 
A B A G E2 z G | 
E2 z G E D C2 | 
D8 |]

@@@ Tune index: 9115
